lib/flags/s/VEN.svg

<svg xmlns="http://www.w3.org/2000/svg" fill="none" viewBox="0 0 16 12"><mask id="VEN_svg__a" width="16" height="12" x="0" y="0" mask-type="alpha" maskUnits="userSpaceOnUse"><path fill="#fff" d="M0 0H16V12H0z"/></mask><g mask="url(#VEN_svg__a)"><path fill="#2E42A5" fill-rule="evenodd" d="M0 0V12H16V0H0Z" clip-rule="evenodd"/><mask id="VEN_svg__b" width="16" height="12" x="0" y="0" mask-type="alpha" maskUnits="userSpaceOnUse"><path fill="#fff" fill-rule="evenodd" d="M0 0V12H16V0H0Z" clip-rule="evenodd"/></mask><g mask="url(#VEN_svg__b)"><path fill="#FECA00" fill-rule="evenodd" d="M0 0V4H16V0H0Z" clip-rule="evenodd"/><path fill="#E31D1C" fill-rule="evenodd" d="M0 8V12H16V8H0Z" clip-rule="evenodd"/><path fill="#F7FCFF" d="M4.10742 7.62019L3.19562 7.20956C4.06358 5.28231 5.69479 4.30225 7.99998 4.30225C10.306 4.30225 11.9323 5.28325 12.7881 7.21209L11.874 7.61766C11.1842 6.06299 9.92308 5.30225 7.99998 5.30225C6.07605 5.30225 4.80829 6.06394 4.10742 7.62019Z"/></g></g></svg>

<svg xmlns="http://www.w3.org/2000/svg" fill="none" viewBox="0 0 16 12"><mask id="VEN_svg__a" width="16" height="12" x="0" y="0" maskUnits="userSpaceOnUse"><path fill="#fff" d="M0 0h16v12H0z"/></mask><g mask="url(#VEN_svg__a)"><path fill="#2E42A5" fill-rule="evenodd" d="M0 0v12h16V0H0z" clip-rule="evenodd"/><mask id="VEN_svg__b" width="16" height="12" x="0" y="0" maskUnits="userSpaceOnUse"><path fill="#fff" fill-rule="evenodd" d="M0 0v12h16V0H0z" clip-rule="evenodd"/></mask><g mask="url(#VEN_svg__b)"><path fill="#FECA00" fill-rule="evenodd" d="M0 0v4h16V0H0z" clip-rule="evenodd"/><path fill="#E31D1C" fill-rule="evenodd" d="M0 8v4h16V8H0z" clip-rule="evenodd"/><path fill="#F7FCFF" d="M4.107 7.62l-.911-.41C4.064 5.282 5.695 4.302 8 4.302c2.306 0 3.932.981 4.788 2.91l-.914.406C11.184 6.063 9.924 5.302 8 5.302c-1.924 0-3.192.762-3.893 2.318z"/></g></g></svg>
